logos/haskell.svg

<?xml version="1.0" encoding="UTF-8"?>
<svg width="512px" height="78px" viewBox="0 0 512 78" version="1.1" xmlns="http://www.w3.org/2000/svg" xmlns:xlink="http://www.w3.org/1999/xlink" preserveAspectRatio="xMidYMid">
    <g>
				<path d="M284.391356,20.3180511 C288.109139,20.3180511 292.072361,20.8444689 296.281022,21.8973045 C300.559424,22.9501401 304.906562,24.4925108 309.322436,26.5244165 L301.637407,39.2288566 L300.478536,38.6974428 C297.062038,37.1505792 294.186549,36.0301139 291.852071,35.3360472 C289.256864,34.4978022 286.765601,34.0786798 284.378279,34.0786798 C282.835908,34.0786798 281.574182,34.3234473 280.5931,34.8129823 C279.68109,35.2354578 279.225084,35.9362305 279.225084,36.9153006 C279.225084,37.4786012 279.36591,37.9714892 279.64756,38.3939646 C279.92921,38.7426745 280.422098,39.0927256 281.126224,39.4441179 C281.83035,39.7948396 282.779243,40.1804322 283.972904,40.6008959 L284.763134,40.8155134 C285.861838,41.1072495 287.140799,41.4213029 288.600016,41.7576739 C292.560476,42.7466845 295.929885,43.7980676 298.70824,44.911823 L299.222255,45.1213831 C302.099112,46.2479843 304.379138,47.5120576 306.062334,48.9136031 C307.814601,50.2480891 309.041792,51.7904597 309.743906,53.5407151 C310.515091,55.2239109 310.900684,57.1854041 310.900684,59.4251945 C310.900684,65.1051421 308.726612,69.5914289 304.378468,72.884055 C300.100065,76.183387 294.244086,77.833053 286.81053,77.833053 L286.77633,77.7908055 C284.462774,77.7908055 281.973522,77.6154447 279.308574,77.264723 C276.643625,76.9146719 274.013883,76.4593373 271.419348,75.8987191 C268.897907,75.3381009 266.443526,74.6721991 264.056204,73.9010138 C261.675589,73.0600864 259.610153,72.1490819 257.859898,71.168 L265.544927,57.6085501 C269.400854,59.6404558 273.082426,61.1818206 276.589642,62.2326444 C280.096859,63.2841388 283.359308,63.8098861 286.37699,63.8098861 C289.884207,63.8098861 291.637815,62.9337525 291.637815,61.1814853 C291.637815,60.2694748 290.937043,59.4634185 289.535497,58.7633163 C288.133952,58.0658965 285.471686,57.2276516 281.548699,56.2485815 L280.106971,55.8561257 C276.811515,54.9400288 273.996113,54.0213648 271.660762,53.1001336 C268.998496,52.0540039 266.862648,50.8972259 265.253218,49.6297996 C263.637082,48.3020196 262.480304,46.8669443 261.782884,45.3245737 C261.078758,43.7151434 260.726695,41.8575927 260.726695,39.7519214 C260.726695,36.9488304 261.287984,34.3569771 262.410562,31.9763615 C263.602211,29.5957459 265.249865,27.5303104 267.353525,25.780055 C269.456513,24.0297996 271.94543,22.6986667 274.820275,21.7866562 C277.764191,20.8075861 280.954551,20.3180511 284.391356,20.3180511 Z M223.116322,20.3985226 C231.952765,20.3985226 238.75529,22.3633687 243.523898,26.2930609 C248.291835,30.2227531 250.675804,36.1105855 250.675804,43.956558 L250.675804,54.679387 C250.675804,56.5704676 251.027866,57.9016005 251.731992,58.6727859 C252.436118,59.3769116 253.700191,59.799387 255.524212,59.9402122 L255.524212,76.7587583 C253.700191,77.1074682 251.981454,77.3522358 250.368,77.4930609 C248.753876,77.7076516 247.315447,77.814947 246.052715,77.814947 C242.477098,77.814947 239.742407,77.1845868 237.848644,75.9238664 C236.024623,74.5960864 234.830963,72.6681231 234.267662,70.1399764 L233.845187,68.1483065 C231.390806,71.3068134 228.550832,73.7243117 225.325265,75.4008016 C222.099699,77.0169378 218.662895,77.8250059 215.014853,77.8250059 L214.985682,77.7908055 C212.250991,77.7908055 209.691327,77.3348003 207.306688,76.4227898 C204.922719,75.5127911 202.853931,74.2866064 201.100322,72.7442358 C199.417126,71.1327937 198.084988,69.2407073 197.103906,67.0679764 C196.124836,64.8952456 195.635301,62.5474892 195.635301,60.0247073 C195.635301,57.2216162 196.232131,54.6639633 197.425792,52.3517485 C198.619453,50.0381925 200.269119,48.0408225 202.37479,46.3596385 C204.480461,44.6777839 206.971725,43.3811866 209.848582,42.4698468 C212.792498,41.5591775 216.018064,41.1038428 219.525281,41.1038428 C224.018274,41.1038428 227.736728,41.8046156 230.680644,43.2061611 L230.680644,41.5243065 C230.680644,38.931112 229.909459,37.0038193 228.367088,35.7424283 C226.898483,34.4817079 224.480985,33.8513477 221.114593,33.8513477 C218.15978,33.8513477 215.417147,34.3128409 212.886695,35.2358271 L212.383434,35.4265776 C209.721168,36.4123536 206.918077,37.8843117 203.974161,39.8424519 L198.190271,27.43978 C205.483673,22.7456084 213.792356,20.3985226 223.116322,20.3985226 Z M403.420794,20.394499 C408.116132,20.394499 412.299154,21.1319872 415.969862,22.6069636 L416.467238,22.812668 C420.060291,24.2779201 423.08747,26.248525 425.548775,28.7244825 L425.932699,29.1196228 C428.391316,31.5782393 430.251077,34.4461236 431.511983,37.7232758 L431.716589,38.2732574 C433.044369,41.7067086 433.708259,45.3178677 433.708259,49.1067348 C433.708259,50.1595704 433.637847,51.2459358 433.497022,52.365831 C433.423256,53.4186667 433.315961,54.3642069 433.175136,55.2024519 L394.368754,55.2024519 C394.579992,58.146368 395.667363,60.2855691 397.630868,61.620055 C399.593703,62.8807754 401.731898,63.5111356 404.045454,63.5111356 C406.224891,63.5111356 408.260149,63.0216005 410.15123,62.0425305 C412.116076,61.0634604 413.413679,59.6987976 414.044039,57.9485422 L430.983293,62.7868919 C428.74082,67.2061192 425.270486,70.8172783 420.572291,73.6203694 C415.943838,76.4234604 410.228684,77.8250059 403.426829,77.8250059 L403.426829,77.7908055 C398.588479,77.7908055 394.275877,77.0548265 390.489022,75.5828684 C386.702166,74.0404977 383.511471,71.9730504 380.916935,69.3805265 C378.392812,66.7880026 376.464849,63.8095508 375.133045,60.4451709 C373.7999,57.0814617 373.133328,53.5423916 373.133328,49.8279607 C373.133328,45.8338913 373.763688,42.0497184 375.024409,38.475442 C376.352189,34.9011657 378.280152,31.7828946 380.808299,29.1206287 C383.403505,26.4570216 386.558659,24.3547033 390.27376,22.8136739 C394.055921,21.2008906 398.438266,20.394499 403.420794,20.394499 Z M459.941972,0.00100589391 L459.941972,53.4039136 C459.941972,57.6085501 461.658698,59.7108684 465.092149,59.7108684 C465.930394,59.7108684 466.842405,59.5700432 467.828181,59.2883929 C468.807251,59.0087544 469.719261,58.6231618 470.564212,58.1316149 L473.089006,74.2158585 C470.701684,75.3377656 467.999183,76.2138991 464.981501,76.8442593 C462.037585,77.4746195 459.231141,77.7897996 456.562169,77.7897996 C451.230931,77.7897996 447.126884,76.4234604 444.250028,73.6907819 C441.373171,70.9614565 439.934743,67.0049404 439.934743,61.8212338 L439.934743,0.00804715128 L439.964919,0.00100589391 L459.941972,0.00100589391 Z M498.155882,0.00100589391 L498.155882,53.4039136 C498.155882,57.6085501 499.872608,59.7108684 503.306059,59.7108684 C504.144304,59.7108684 505.056314,59.5700432 506.04209,59.2883929 C507.02116,59.0087544 507.933171,58.6231618 508.778122,58.1316149 L511.302916,74.2158585 C508.915594,75.3377656 506.213092,76.2138991 503.195411,76.8442593 C500.251494,77.4746195 497.44505,77.7897996 494.776079,77.7897996 C489.444841,77.7897996 485.344147,76.4234604 482.473996,73.6907819 C479.597139,70.9614565 478.158711,67.0049404 478.158711,61.8212338 L478.158711,0.00804715128 L478.16877,0.00100589391 L498.155882,0.00100589391 Z M142.490908,2.10433006 L142.490908,29.6457053 L167.527607,29.6457053 L167.527607,2.10433006 L188.037784,2.10433006 L188.037784,76.7396464 L167.527607,76.7396464 L167.527607,47.5164165 L142.490908,47.5164165 L142.490908,76.7376346 L121.980731,76.7376346 L121.980731,2.10433006 L142.490908,2.10433006 Z M337.618232,0 L337.618232,41.945776 L352.344519,21.4456582 L373.381784,21.4456582 L354.342224,45.6233242 L375.274876,76.7396464 L354.132998,76.7396464 L341.614648,56.5563851 L337.618232,60.9722593 L337.618232,76.7376346 L317.63112,76.7376346 L317.63112,0 L337.618232,0 Z M222.973485,51.9312849 C220.519104,51.9312849 218.483845,52.5247623 216.867709,53.7117171 C215.251573,54.8986719 214.443505,56.4041598 214.443505,58.2281807 C214.443505,59.7705514 215.040335,61.0312718 216.233996,62.0103418 C217.494716,62.9894119 219.070617,63.478947 220.961697,63.478947 L220.980809,63.4940354 C222.173129,63.4940354 223.40032,63.3190098 224.662381,62.9689587 C225.924443,62.5478245 227.04635,62.0220773 228.028102,61.3917171 C228.799287,60.8310989 229.430654,60.2352744 229.9222,59.6042436 C230.413077,58.9034709 230.658515,58.2026981 230.658515,57.5019253 L230.658515,53.4029077 C229.464854,52.982444 228.167251,52.6320576 226.765705,52.3517485 C225.357454,52.0714394 224.09338,51.9312849 222.973485,51.9312849 Z M403.108967,34.5856503 C400.58082,34.5856503 398.512031,35.3568356 396.902601,36.8992063 C395.293171,38.4415769 394.310748,40.5438952 393.955332,43.2061611 L412.262601,43.2061611 C411.907185,40.5438952 410.924762,38.4415769 409.315332,36.8992063 C407.699196,35.3568356 405.630407,34.5856503 403.108967,34.5856503 Z" fill-opacity="0.937" fill="#333333"></path>
				<polygon fill="#453A62" points="0 76.8402358 24.8898389 39.5296189 0 2.21799607 18.6673792 2.21799607 43.5572181 39.5296189 18.6673792 76.8402358"></polygon>
				<polygon fill="#5E5086" points="24.8898389 76.8402358 49.7796778 39.5296189 24.8898389 2.21799607 43.5572181 2.21799607 93.3348841 76.8402358 74.6695167 76.8402358 59.1143733 53.5216031 43.5562122 76.8402358"></polygon>
				<path d="M85.0402829,55.0757092 L76.7436699,42.637831 L105.781815,42.637831 L105.781815,55.0767151 L85.0402829,55.0767151 L85.0402829,55.0757092 Z M72.5953635,36.4214067 L64.2987505,23.9835285 L105.781815,23.9835285 L105.781815,36.4214067 L72.5953635,36.4214067 Z" fill="#8F4E8B"></path>
		</g>
</svg>

<svg width="512" height="78" xmlns="http://www.w3.org/2000/svg" preserveAspectRatio="xMidYMid">
	<path d="M284.391 20.318c3.718 0 7.681.526 11.89 1.58 4.278 1.052 8.626 2.595 13.041 4.626l-7.685 12.705-1.158-.532c-3.417-1.546-6.292-2.667-8.627-3.361-2.595-.838-5.086-1.257-7.474-1.257-1.542 0-2.804.244-3.785.734-.912.422-1.368 1.123-1.368 2.102 0 .564.14 1.056.423 1.479.281.349.774.699 1.478 1.05.704.35 1.653.736 2.847 1.157l.79.215c1.099.291 2.378.605 3.837.942 3.96.989 7.33 2.04 10.108 3.154l.514.21c2.877 1.126 5.157 2.39 6.84 3.792 1.753 1.334 2.98 2.876 3.682 4.627.771 1.683 1.157 3.644 1.157 5.884 0 5.68-2.174 10.166-6.523 13.46-4.278 3.298-10.134 4.948-17.567 4.948l-.035-.042c-2.313 0-4.802-.176-7.467-.526a97.395 97.395 0 0 1-7.89-1.366 81.446 81.446 0 0 1-7.363-1.998c-2.38-.84-4.446-1.752-6.196-2.733l7.685-13.56c3.856 2.032 7.537 3.574 11.045 4.625 3.507 1.051 6.77 1.577 9.787 1.577 3.507 0 5.26-.876 5.26-2.629 0-.912-.7-1.718-2.102-2.418-1.401-.697-4.063-1.535-7.986-2.514l-1.442-.393c-3.295-.916-6.11-1.835-8.446-2.756-2.663-1.046-4.798-2.203-6.408-3.47-1.616-1.328-2.773-2.763-3.47-4.305-.704-1.61-1.056-3.467-1.056-5.573 0-2.803.561-5.395 1.684-7.776 1.191-2.38 2.839-4.446 4.943-6.196 2.103-1.75 4.591-3.081 7.466-3.993 2.944-.98 6.135-1.469 9.571-1.469Zm-61.275.08c8.837 0 15.64 1.965 20.408 5.895 4.768 3.93 7.152 9.818 7.152 17.664v10.722c0 1.891.352 3.223 1.056 3.994.704.704 1.968 1.126 3.792 1.267V76.76a51.312 51.312 0 0 1-5.156.734c-1.614.215-3.053.322-4.315.322-3.576 0-6.31-.63-8.204-1.891-1.824-1.328-3.018-3.256-3.581-5.784l-.423-1.992c-2.454 3.159-5.294 5.576-8.52 7.253-3.225 1.616-6.662 2.424-10.31 2.424l-.03-.034c-2.734 0-5.294-.456-7.678-1.368-2.384-.91-4.453-2.136-6.207-3.679a18.071 18.071 0 0 1-3.996-5.676c-.98-2.173-1.469-4.52-1.469-7.043 0-2.803.597-5.361 1.79-7.673 1.194-2.314 2.844-4.311 4.95-5.992 2.105-1.682 4.597-2.979 7.474-3.89 2.943-.91 6.17-1.366 9.676-1.366 4.493 0 8.212.7 11.156 2.102v-1.682c0-2.593-.772-4.52-2.314-5.782-1.469-1.26-3.886-1.89-7.252-1.89-2.955 0-5.698.46-8.228 1.384l-.504.19c-2.662.986-5.465 2.458-8.409 4.416L198.19 27.44c7.294-4.694 15.602-7.041 24.926-7.041Zm180.305-.004c4.695 0 8.878.738 12.549 2.213l.497.206c3.593 1.465 6.62 3.436 9.082 5.911l.384.396a24.44 24.44 0 0 1 5.579 8.603l.205.55c1.327 3.434 1.991 7.045 1.991 10.834 0 1.053-.07 2.139-.211 3.259a29.84 29.84 0 0 1-.322 2.836H394.37c.211 2.944 1.298 5.084 3.262 6.418 1.963 1.26 4.1 1.891 6.414 1.891 2.18 0 4.215-.49 6.106-1.468 1.965-.98 3.263-2.344 3.893-4.094l16.94 4.838c-2.243 4.42-5.714 8.03-10.412 10.833-4.628 2.803-10.343 4.205-17.145 4.205v-.034c-4.839 0-9.151-.736-12.938-2.208-3.787-1.543-6.978-3.61-9.572-6.202a26.855 26.855 0 0 1-5.784-8.936c-1.333-3.364-2-6.903-2-10.617 0-3.994.63-7.778 1.891-11.353 1.328-3.574 3.256-6.692 5.784-9.354 2.596-2.664 5.75-4.766 9.466-6.307 3.782-1.613 8.164-2.42 13.147-2.42ZM459.942.001v53.403c0 4.205 1.717 6.307 5.15 6.307.838 0 1.75-.141 2.736-.423.98-.28 1.891-.665 2.736-1.156l2.525 16.084c-2.387 1.122-5.09 1.998-8.107 2.628-2.944.63-5.75.946-8.42.946-5.331 0-9.435-1.367-12.312-4.1-2.877-2.729-4.315-6.685-4.315-11.869V.008l.03-.007h19.977Zm38.214 0v53.403c0 4.205 1.717 6.307 5.15 6.307.838 0 1.75-.141 2.736-.423.98-.28 1.891-.665 2.736-1.156l2.525 16.084c-2.387 1.122-5.09 1.998-8.108 2.628-2.944.63-5.75.946-8.419.946-5.331 0-9.432-1.367-12.302-4.1-2.877-2.729-4.315-6.685-4.315-11.869V.008l.01-.007h19.987ZM142.49 2.104v27.542h25.037V2.104h20.51V76.74h-20.51V47.516H142.49v29.222h-20.51V2.104h20.51ZM337.618 0v41.946l14.727-20.5h21.037l-19.04 24.177 20.933 31.117h-21.142l-12.518-20.184-3.997 4.416v15.766h-19.987V0h19.987ZM222.973 51.931c-2.454 0-4.49.594-6.105 1.78-1.616 1.188-2.424 2.693-2.424 4.517 0 1.543.596 2.803 1.79 3.782 1.26.98 2.837 1.469 4.728 1.469l.019.015c1.192 0 2.42-.175 3.681-.525 1.262-.421 2.384-.947 3.366-1.577.771-.56 1.403-1.157 1.894-1.788.491-.7.737-1.401.737-2.102v-4.1a28.608 28.608 0 0 0-3.893-1.05c-1.409-.28-2.673-.42-3.793-.42ZM403.11 34.586c-2.528 0-4.597.77-6.206 2.313-1.61 1.543-2.592 3.645-2.948 6.307h18.308c-.356-2.662-1.338-4.764-2.948-6.307-1.616-1.542-3.685-2.313-6.206-2.313Z" fill-opacity=".937" fill="#333"/>
	<path fill="#453A62" d="m0 76.84 24.89-37.31L0 2.218h18.667l24.89 37.312-24.89 37.31z"/>
	<path fill="#5E5086" d="m24.89 76.84 24.89-37.31L24.89 2.218h18.667L93.335 76.84H74.67L59.114 53.522 43.556 76.84z"/>
	<path d="m85.04 55.076-8.296-12.438h29.038v12.439H85.04v-.001ZM72.595 36.42 64.3 23.984h41.483V36.42H72.595Z" fill="#8F4E8B"/>
</svg>
